X:0619
T:The Irish Washerwoman.
M:6/8
L:1/8
Q:3/8=120
I: :: :|
Z:Jack Campin * www.campin.me.uk * 2009
K:G
d/c/|.B.G.G .D.G.G|.B.G.B .d.c.B| cAA EAA| cAc edc|BGG DGG|BGB dcB|cBc Adc|BGG G2:|
g   | gdg    gdg  | gdg    bag  |=fcf fcf|=fcf agf|egg dgg|cgg Bgg|cBc Adc|BGG G2:|

